**kern
*clefF4
*k[f#c#g#]
*M4/4
=1
8r
8ee
8eeL
8eeJ
8cc#L
16bL
16cc#JJ
[8aL
8aJ_ 8cc#
=2
8aL_ 8b
8aJ] [8bb
[8g#L 8bb]
16g#L_ 16gg#
16g#JJ_ 16ee
8g#L_ 8aa
8g#J] 8a
[8f#L
8f#J] 8a
=3
[8f#L 8g#
8f#J] [8gg#
[8eL 8gg#]
16eL_ 16ee
16eJJ_ 16cc#
8eL_ 8ff#
8eJ] 8f#
[8dL
8dJ_ 8f#
=4
8dL_ 8e
8dJ] [8ee
[8c#L 8ee]
16c#L_ 16cc#
16c#JJ] 16a
8BL 8dd
[16AL 16ee
16AJJ] 16ff#
[8G#L 8ee
8G#J] 8dd
=5
8AL [8cc#
8aJ 8cc#]
8aL [8dd#X
[16aL 16dd#]
32aL_ 32cc#
32aJJJ] 32dd#X
8g#L [8ee
16f#L 16ee_
16g#JJ 16ee]
[8eL
8eJ_ 8g#
=6
8eL_ 8f#
8eJ] [8ff#
[8d#XL 8ff#]
16d#L_ 16dd#X [16ff#
16d#JJ_ 16b 16ff#]
8d#L_ 8ee 8gg#
16d#L_ [16e 16aa
16d#JJ] 16e] 16bb
[16c#LL 16aa
16c#J_ 16bb
16c#L_ [16e 16gg#
16c#JJ_ 16e] 16aa
=7
8c#L_ 8d#X [8ff#
8c#J] [8dd#X 8ff#]
[8BL 8dd#]
16BL_ 16b [16dd#X
16BJJ_ 16g# 16dd#]
8BL_ 8cc# 8ee
16BL_ [16c# 16ff#
16BJJ] 16c#] 16gg#
[16ALL 16ff#
16AJ_ 16gg#
16AL_ [16c# 16ee
16AJJ_ 16c#] 16ff#
=8
8AL_ 8B [8dd#X
8AJ] [8b 8dd#]
[8G#L 8b] [8ee
16G#L_ 16g# 16ee_
16G#JJ] 16e 16ee_
[8F#L 8a 8ee_
16F#L_ 16b 16ee_
16F#JJ] 16cc# 16ee]
[8BL 8b [8dd#X
8BJ] 8a 8dd#]
=9
8EL 8g# 8ee
[16eL 16g#
16eJJ] 16f# 16a
8eL 8g# 8b
[16eL 16f# 16a
16eJJ] 16g# 16b
8c#L 8a [8cc#
16BL [16b 16cc#_
16c#JJ 16b] 16cc#]
8AL 8cc# [8aa
8c#J 8ee 8aa_
=10
8BL [8dd 8aa_
[8bJ 8dd] 8aa]
8bL] [8gg#
16g#L [16b 16gg#_
16eJJ 16b] 16gg#_
8aL 8cc# 8gg#_
[16AL 16dd 16gg#_
16AJJ] 16ee 16gg#]
16ddLL [16ff#
16eeJ 16ff#_
[16AL 16cc# 16ff#_
16AJJ] 16dd 16ff#_
=11
8G#L [8b 8ff#_
[8g#J 8b] 8ff#]
8g#L] [8ee
16eL [16g# 16ee_
16c#JJ 16g#] 16ee_
8f#L 8a 8ee_
[16F#L 16b 16ee_
16F#JJ] 16cc# 16ee]
16bLL [16dd
16cc#J 16dd_
[16F#L 16a 16dd_
16F#JJ] 16b 16dd_
=12
8EL [8g# 8dd_
[8eJ 8g#] 8dd]
8eL] [8a [8cc#
16c#L 16a_ 16cc#_
16AJJ 16a_ 16cc#]
8dL 8a_ [8b
16eL 16a_ 16b_
16f#JJ 16a] 16b_
8eL [8g# 8b_
8dJ 8g#] 8b]
=13
8c#L [8a
[16AL 16e 16a_ 16cc#
16AJJ] 16d 16a] 16b
8AL 8e 8cc#
8AJ 8f# 8dd#X
8G#L [8B [8ee
16F#L 16B_ 16ee_
16G#JJ 16B] 16ee_
8EL 8g# 8ee_
8G#J 8b 8ee_
=14
8F#L [8a 8ee_
[8f#J 8a] 8ee]
8f#L] [8dd#X
16d#XL [16f# 16dd#_
16BJJ 16f#] 16dd#_
8eL 8g# 8dd#_
[16EL 16a 16dd#_
16EJJ] 16b 16dd#]
16aLL [16cc#
16bJ 16cc#_
[16EL 16g# 16cc#_
16EJJ] 16a 16cc#_
=15
8D#XL [8f# 8cc#_
[8d#XJ 8f#] 8cc#]
8d#L] [8b
16BL [16d#X 16b_
16G#JJ 16d#] 16b_
8c#L 8e 8b_
[16C#L 16f# 16b_
16C#JJ] 16g# 16b]
16f#LL [16a
16g#J 16a_
[16C#L 16e 16a_
16C#JJ] 16f# 16a_
=16
8BBL [8d#X 8a_
[8BJ 8d#] 8a]
8BL] [8e [8g#
16G#L 16e_ 16g#_
16EJJ 16e_ 16g#]
8AL 8e_ [8f#
16BL 16e_ 16f#_
16c#JJ 16e] 16f#_
8BL [8d#X 8f#_
8AJ 8d#] 8f#]
=17
[8G#L 8e
8EJ 8G#] 8g# 8ee
8F#L 8a 8ee
8G#J 8b 8ee
[8AL [8e 8cc#
16AL_ 16e_ 16b
16AJJ] 16e] 16cc#
[8AL 8a
8AJ_ 8cc#
=18
8AL_ 8b
8AJ] [8bb
[8G#L [8ee 8bb]
16G#L_ [16B 16ee_ 16gg#
16G#JJ_ 16B] 16ee_
8G#L_ 8c# 8ee] 8aa
16G#L_ 16d [16a 16ff#
16G#JJ] 16e 16a] 16cc#
[16F#LL 16d [16dd
16F#J_ 16e 16dd_
16F#L_ 16c# [16a 16dd_
16F#JJ_ 16d 16a] 16dd]
=19
8F#L_ [8B 8g#
8F#J] 8B] [8gg#
[8EL [8cc# 8gg#]
16EL_ [16G# 16cc#_ 16ee
16EJJ_ 16G#] 16cc#_
8EL_ 8A 8cc#] 8ff#
16EL_ 16B [16f# 16dd
16EJJ] 16c# 16f#] 16a
[16DLL 16B [16b
16DJ_ 16c# 16b_
16DL_ 16A [16f# 16b_
16DJJ_ 16B 16f#] 16b]
=20
8DL_ [8G# 8e
8DJ] 8G#] [8ee
[8C#L [8A [8e 8ee]
16C#L_ 16A_ 16e_ 16cc#
16C#JJ] 16A_ 16e] 16a
[8BBL 8A_ 8f# 8dd
16BBL_ 16A_ [16d 16ee
16BBJJ_ 16A] 16d] 16ff#
8BBL_ [8G# 8B 8ee
16BBL_ 16G#_ 16c# [16dd
16BBJJ] 16G#] 16d 16dd]
=21
[8AAL [8A [8e 8cc#
8AAJ] 8A] 8e] 8ee
[8aaL
8c#J 8a 8aa_
8dL [8b 8aa_
16eL 16b_ 16aa_
16f#JJ 16b_ 16aa]
16eLL 16b_ [16gg#
16f#J 16b_ 16gg#_
16dL 16b_ [16ee 16gg#_
16eJJ 16b] 16ee_ 16gg#_
=22
[8c#L [8a 8ee] 8gg#]
16c#L_ 16a_ 16aa
16c#JJ] 16a_ 16ee
8dL 8a] [8ff#
[16dL 16b [16dd 16ff#_
16dJJ] 16f# 16dd_ 16ff#_
8BL [8g# 8dd] 8ff#_
16c#L 16g#_ 16b 16ff#_
16dJJ 16g#_ 16ff#]
16c#LL 16g#_ [16cc# [16ee
16dJ 16g#_ 16cc#_ 16ee_
16BL 16g#_ 16cc#_ 16ee_
16c#JJ 16g#] 16cc#_ 16ee_
=23
[8A#XL [8f# 8cc#] 8ee]
16A#L_ 16f#_ 16ff#
16A#JJ] 16f#_ 16cc#
8BL 8f#] [8dd
[16BL 16d [16b 16dd_
16BJJ] 16f# 16b_ 16dd_
8G#L [8e 8b] 8dd_
16AnL 16e_ 16g# 16dd_
16BJJ 16e_ 16dd]
8AL 8e_ [8a [8cc#
8G#J 8e] 8a_ 8cc#_
=24
8F#L [8d 8a] 8cc#_
16G#L 16d_ 16f# 16cc#_
16AJJ 16d_ 16cc#]
16G#LL 16d_ [16g# [16b
16AJ 16d_ 16g#_ 16b_
16F#L 16d_ 16g#_ 16b_
16G#JJ 16d] 16g#_ 16b_
8E#XL [8c# 8g#] 8b_
16F#L 16c#_ 16e#X 16b_
16G#JJ 16c#_ 16b]
8F#L 8c#_ 8f# 8a
8EnJ 8c#_ 8g#
=25
[8DL 8c#] [8f# 8a
8DJ_ 8f#] 8a 8ff#
8DL_ 8g# [8b#X 8ff#
8DJ] 8f# 8b#] 8ff#
[8C#L 8g# [8cc# 8ee#X
16C#L_ 16cc#_ 16dd#X
16C#JJ] 16cc#] 16ee#X
8cc#L
8cc#J 8ee#X
=26
8a#XL [8ff#
16g#L 16ff#_
16a#XJJ 16ff#_
8f#L 8ff#]
8a#XJ 8ee
[8bL 8dd#X
16bL_ 16cc#
16bJJ_ 16dd#X
8bL]
8anJ 8dd#X
=27
8g#L [8ee
16f#L 16ee_
16g#JJ 16ee_
8eL 8ee]
8g#J 8dd
[8aL 8cc#
[16AL 16a_ 16b
16AJJ] 16a] 16cc#
8AL 8c# 8a
[16AL 16d 16b
16AJJ] 16e 16cc#
=28
8F#L 8f# [8dd
16EL [16a 16dd_
16F#JJ 16a] 16dd]
8DL [8dd
8F#J 8a 8dd_
8EL 8gn 8dd_
[8eJ 8b 8dd] [8ggn
8eL] [8cc# 8gg]
16c#L 16cc#_ [16ee
16AJJ 16cc#_ 16ee]
=29
8DL 8cc#_ 8ff#
8dJ 8f# 8a 8cc#]
[8bL
8DJ 8f# 8b_ 8dd
8C#L 8e 8b_
[8c#J 8g# 8b] [8ee
8c#L] [8a 8ee]
16AL 16a_ [16cc#
16F#JJ 16a_ 16cc#]
=30
8BL 8a_ 8dd
8BBJ 8d 8a] 8dd
[8g#L 8dd
8EEJ 8g#] 8b 8dd
[8AAL [8a 8cc#
16AAL_ 16a_ 16b [16aa
16AAJJ] 16a] 16cc# 16aa]
8aL 8aa
8cc#J 8aa
=31
[8ddL 8ff#
16ddL_ 16ee
16ddJJ] 16ff#
[8ddL
8f#J 8dd_ 8ff#
8gnL 8dd_ 8ee
8GnJ 8dd] [8eee
8AL [8cc# 8eee]
[16aL 16cc#_ 16ccc#
16aJJ] 16cc#_ 16aa
=32
8f#L 8cc#_ 8ddd
16gnL 16cc#_ [16dd
16aJJ 16cc#] 16dd]
16gnLL [16b
16aJ 16b_
16f#L 16b_ [16dd
16gnJJ 16b_ 16dd]
8eL 8b_ 8cc#
8EJ 8b] [8ccc#
8F#L [8a 8ccc#]
[16f#L 16a_ 16aa
16f#JJ] 16a_ 16ff#
=33
8dL 8a_ 8bb
16eL 16a_ [16b
16f#JJ 16a] 16b]
16eLL [16gn
16f#J 16g_
16dL 16g_ [16b
16eJJ 16g_ 16b]
8c#L 8g_ 8a
8C#J 8g] [8aa
8DL [8f# 8aa]
[16dL 16f#_ 16ff#
16dJJ] 16f#] 16dd
=34
[8dL [8e 8ggn
16dL_ 16e_ 16aa
16dJJ] 16e_ 16bb
[16c#LL 16e_ 16aa
16c#J_ 16e_ 16bb
16c#L_ 16e_ 16ggn
16c#JJ_ 16e] 16aa
8c#L_ [8d 8ff#
16c#L_ 16d_ 16ggn
16c#JJ] 16d_ 16aa
[16BLL 16d_ 16ggn
16BJ_ 16d_ 16aa
16BL_ 16d_ 16ff#
16BJJ_ 16d] 16ggn
=35
8BL_ [8c# 8ee
16BL_ 16c#_ 16ff#
16BJJ] 16c#_ 16ggn
[16A#XLL 16c#_ 16ff#
16A#J_ 16c#_ 16ggn
16A#L_ 16c#_ 16ee
16A#JJ] 16c#] 16ff#
8BL 8d [8dd
[16BL 16dd_
16BJJ] 16c# 16dd]
[16BLL 16d [16dd
16BJ] 16c# 16dd]
[16BL 16d [16dd
16BJJ] 16e 16dd]
=36
8A#XL 8f# 8cc#
16G#L 16b [16cc# [16ff#
16A#XJJ 16cc#_ 16ff#]
8F#L 8a#X 8cc#] 8ff#
[16A#XL 16a#X [16cc# [16ee
16A#JJ] 16f# 16cc#] 16ee]
[8BL [8f# [8b 8dd
16BL_ 16f#_ 16b_ 16cc#
16BJJ_ 16f#_ 16b] 16dd
8BL] 8f#] 8b
8AnJ 8f# 8b 8dd#X
=37
8G#L 8e 8b [8ee
16F#L 16a#X [16b 16ee_
16G#JJ 16b_ 16ee_
8EL 8g# 8b] 8ee]
[16G#L 16g# [16b [16dd
16G#JJ] 16e 16b] 16dd]
[8AnL [8e [8an 8cc#
16AL_ 16e_ 16a_ 16b
16AJJ] 16e_ 16a] 16cc#
8eL] 8a
8a#XJ 8cc#
=38
8g#L [8b
16f#L 16b_
16g#JJ 16b]
8eL [8ee
16EL [16g# 16ee_
16G#JJ 16g#] 16ee]
[8BL [8f# 8dd
16BL_ 16f#_ 16cc#
16BJJ] 16f#] 16dd
[8bL
8bJ] 8dd
=39
8aL [8cc#
16g#L 16cc#_
16aJJ 16cc#]
8f#L [8ff#
16F#L [16a 16ff#_
16AJJ 16a] 16ff#]
[8c#L [8g# 8ee
16c#L_ 16g#_ 16dd#X
16c#JJ] 16g#] 16ee
[8cc#L
8cc#J] 8ee
=40
8b#XL [8dd#X
[16g#L 16a#X 16dd#_
16g#JJ] 16b#X 16dd#_
8g#L 8dd#]
8g#J 8b#X 8dd#X
8eL 8cc# 8ee
16d#XL [16dd#X [16ff#
16eJJ 16dd#] 16ff#]
8c#L 8ee 8gg#
8eJ 8cc# 8gg#
=41
16f#LL [16cc# 16aa
16g#J 16cc#_ 16bb
16aL 16cc#_ 16ccc#
16g#JJ 16cc#] 16bb
16f#LL 16aa
16g#J 16bb
16eL [16cc# 16gg#
16f#JJ 16cc#] 16aa
[16d#XLL 16dd#X [16ff#
16d#J_ 16ee 16ff#_
16d#L_ 16ff#_
16d#JJ_ 16ee 16ff#]
16d#LL_ 16dd#X
16d#J] 16ee
[16d#XL 16cc# [16ff#
16d#JJ] 16dd#X 16ff#]
=42
16eLL [16b 16gg#
16f#J 16b_ 16aa
16g#L 16b_ 16bb
16f#JJ 16b] 16aa
16eLL 16gg#
16f#J 16aa
16d#XL [16b 16ff#
16eJJ 16b] 16gg#
[16c#LL 16cc# [16ee
16c#J_ 16dd#X 16ee_
16c#L_ 16ee_
16c#JJ] 16dd#X 16ee]
16cc#LL
16dd#XJ
[16c#L 16b [16ee
16c#JJ] 16cc# 16ee]
=43
16d#XLL [16a 16ff#
16eJ 16a_ 16gg#
16f#L 16a_ 16aa
16eJJ 16a] 16gg#
16d#XLL 16ff#
16eJ 16gg#
16c#L [16a 16ee
16d#XJJ 16a] 16ff#
[16B#XLL 16g# [16dd#X
16B#J_ 16b#X 16dd#_
[16G#L 16B#_ 16dd#_
16G#JJ] 16B#] 16cc# 16dd#]
[16G#LL 16b#X
16G#J] 16g#
[16G#L [16d#X 16a#X [16dd#X
16G#JJ] 16d#] 16b#X 16dd#]
=44
8EL 8e [8g# 8cc#
16D#XL [16f# 16g#_ [16dd#X
16EJJ 16f#] 16g#] 16dd#]
8C#L [8g# [8ee
8c#J 8g#_ 8ee]
[8c#L 8g#_ [8dd#X
8c#J] 8g#] 8dd#_ 8gg#
[8B#XL [8g# 8dd#_ 8gg#
8B#J] 8g#_ 8dd#] 8gg#
=45
[8c#L 8g#_ [8ee
16c#L_ 16g#_ 16dd#X 16ee_
16c#JJ_ 16g#] 16ee]
8c#L_ [8a 8cc#
8c#J] 8a_ 8ee
[8BL 8a_ 8dd#X
8BJ_ 8a] [8ddd#X
8BL_ [8g# 8ddd#]
16BL_ 16g#_ 16bb
16BJJ] 16g#_ 16gg#
=46
[8AL 8g#_ 8ccc#
8AJ_ 8g#] 8cc#
8AL_ [8f#
8AJ] 8f#_ 8cc#
[8G#L 8f#_ 8b
8G#J_ 8f#] 8cc# [8bb
8G#L_ 8e#X 8cc# 8bb]
16G#L_ [16B [16cc# 16gg#
16G#JJ] 16B] 16cc#] 16ee#X
=47
[8F#L 8A 8a [8ff#
16F#L_ [16f# 16g# 16ff#_
16F#JJ] 16f#] 16a 16ff#]
8f#L
8f#J 8a
8e#XL [8g#
[16c#L 16d#X 16g#_
16c#JJ] 16e#X 16g#_
8c#L 8g#_
8c#J 8e#X 8g#]
=48
8AL 8f# 8a
16G#L [16g# [16b
16AJJ 16g#] 16b]
[8F#L 8a 8cc#
8F#J] 8A 8cc# 8ff#
8G#L [8b [8ff#
[8g#J 8b_ 8ff#]
8g#L] 8b] [8ee
16eL [16g# 16ee_
16c#JJ 16g#] 16ee_
=49
8f#L 8a 8ee_
[16F#L 16b 16ee_
16F#JJ] 16cc# 16ee]
16bLL [16dd
16cc#J 16dd_
[16F#L 16a 16dd_
16F#JJ] 16b 16dd_
8EL [8g# 8dd_
[8eJ 8g#] 8dd]
8eL] [8cc#
16c#L [16e 16cc#_
16AJJ 16e] 16cc#_
=50
8dL 8f# 8cc#_
[16DL 16g# 16cc#_
16DJJ] 16a 16cc#]
16g#LL [16b
16aJ 16b_
[16DL 16f# 16b_
16DJJ] 16g# 16b_
[8C#L 8e 8b_
8C#J] 8b] 8ee
[8F#L [8a#X 8ee
8F#J] 8a#] 8ee
=51
[8f#L 8dd
[16BL 16f#_ 16cc#
16BJJ] 16f#_ 16dd
8BL 8f#_ 8b
8BJ 8f#_ 8dd
8A#XL 8f#] 8cc#
16G#L 16b [16ff#
16A#XJJ 16cc# 16ff#]
8F#L 8a#X 8ff#
8A#XJ 8cc# 8ff#
=52
[8BL [8f# 8dd
[16BBL 16B_ 16f#_ 16cc#
16BBJJ] 16B] 16f#_ 16dd
8BBL 8f#_ 8b
8BBJ 8f#] 8dd#X
8GG#L 8b [8ee
16FF#L [16e 16a 16ee_
16GG#JJ 16e] 16b 16ee]
8EEL 8e 8g#
8GG#J 8e 8b
=53
8FF#L [8e 8a
[8F#J 8e] [8aa
8F#L] 8d#X 8aa]
16D#XL [16a [16dd#X 16ff#
16BBJJ 16a] 16dd#_
8EL 8g# 8dd#] 8gg#
[16EEL [16g# 16b [16gg#
16EEJJ] 16g#] 16gg#_
[8cc#L 8gg#]
[16EEL [16g# 16cc#_ 16ee
16EEJJ] 16g#] 16cc#_
=54
8DD#XL 8f# 8cc#] 8ff#
[8D#XJ 8c# 8f# [8ff#
8D#L] 8B 8ff#]
16BBL [16f# [16b 16dd#X
16GG#JJ 16f#] 16b_
8C#L 8e 8b] 8ee
[16CC#L [16e 16g# [16ee
16CC#JJ] 16e] 16ee_
[8aL 8ee]
[16C#L [16e 16a_ 16cc#
16C#JJ] 16e] 16a_
=55
8BBL 8d#X 8a] [8dd#X
[16BL 16b 16dd#_
16BJJ_ 16a 16dd#_
8BL] [8g# 8dd#]
16G#L 16g#_ 16b 16ee
16EJJ 16g#_ 16dd#X
8AL 8g#] [8cc#
[16AAL [16c# 16a 16cc#_
16AAJJ] 16c#] 16g# 16cc#_
[8f#L 8cc#]
[16AAL [16c# 16f#_ 16dd#X
16AAJJ] 16c#] 16f#_ 16cc#
=56
[8GG#L [8d#X 8f#] [8b#X
16GG#L_ 16d#_ 16g# 16b#_
16GG#JJ_ 16d#] 16f# 16b#]
16GG#LL_ [16e [16cc#
16GG#J_ 16e] 16g# 16cc#_
16GG#L_ [16c# 16f# 16cc#_
16GG#JJ] 16c#] 16e 16cc#_
8GG#L [8d#X [8g# 8cc#_
8G#J 8d#_ 8g#] 8cc#]
8G#L 8d#] [8b#X
8G#J 8d#X 8b#]
=57
8EL 8e [8cc#
16D#XL 16f# 16cc#_ [16gg#
16EJJ 16g# 16cc#] 16gg#]
[16C#LL 16e [16gg#
16C#J_ 16f# 16gg#]
16C#L_ 16d#X [16gg#
16C#JJ] 16e 16gg#]
[8c#L 8ee
16c#L_ 16dd#X
16c#JJ] 16ee
8c#L [8cc#
8c#J 8g# 8cc#]
=58
8AL 8a
16G#L 16b [16ccc#
16AJJ 16cc# 16ccc#]
[16F#LL 16a [16ccc#
16F#J_ 16b 16ccc#]
16F#L_ 16g# [16ccc#
16F#JJ] 16a 16ccc#]
8f#L 8aa
[16f#L 16gg#
16f#JJ] 16aa
8f#L [8ff#
8f#J 8cc# 8ff#]
=59
8d#XL 8dd#X
16c#L 16ee [16ff#
16d#XJJ 16ff#]
[16BLL 16dd#X [16ff#
16BJ_ 16ee 16ff#]
16BL_ 16cc# [16ff#
16BJJ] 16dd#X 16ff#]
[8bL 8dd#X
[16BL 16b_ 16cc#
16BJJ] 16b] 16dd#X
8BL [8b
8BJ 8f# 8b]
=60
8G#L 8g#
16F#L 16a [16bb
16G#JJ 16b 16bb]
[16ELL 16g# [16bb
16EJ_ 16a 16bb]
16EL_ 16f# [16bb
16EJJ] 16g# 16bb]
[8eL 8gg#
[16EL 16e_ 16ff#
16EJJ] 16e] 16gg#
8EL [8ee
8EJ 8B 8ee]
=61
8C#L 8c#
16BBL 16d [16ee
16C#JJ 16e 16ee]
[16AALL 16c# [16ee
16AAJ_ 16d 16ee]
16AAL_ 16B [16ee
16AAJJ] 16c# 16ee]
[8AL 8cc#
16AL_ [16a 16b
16AJJ] 16a] 16cc#
8aL
8aJ 8cc#
=62
8g#L 8b
16f#L [16bb
16g#JJ 16bb_
8eL [8ee 8bb]
[16g#L 16ee_ 16gg#
16g#JJ] 16ee_
8f#L 8ee_ 8aa
8aJ 8ee] [8ff#
[8ddL 8ff#]
[16aL 16dd_
16aJJ] 16b 16dd_
=63
8g#L 8dd_ 8ee
8eJ 8dd] [8gg#
[8cc#L 8gg#]
[16eL 16cc#_ 16ee
16eJJ] 16cc#_
8dL 8cc#_ 8ff#
8f#J 8cc#] [8dd
[8bL 8dd]
[16f#L 16b_
16f#JJ] 16g# 16b_
=64
8eL 8b_ 8cc#
8c#J 8b] [8ee
[8aL 8ee]
[16c#L 16a_ 16cc#
16c#JJ] 16a_
8BL 8a] 8dd
8dJ 8e 8g#
8dL 8e 8g#
16c#L [16e [16g#
16dJJ 16e] 16g#]
=65
[8c#L [8a
[16AAL 16B 16c#_ 16a_
16AAJJ] 16c#] 16a]
8AAL 8A
8AAJ 8c#
8GG#L 8B
16FF#L [16b
16GG#JJ 16b_
8EEL 8b] [8ee
[16GG#L 16g# 16ee_
16GG#JJ] 16e 16ee_
=66
8FF#L 8a 8ee_
[8F#J 8A 8ee]
8F#L] [8dd
16DL [16A [16f# 16dd_
16BBJJ 16A] 16f#] 16dd_
8EL 8G# 8g# 8dd_
[16EEL [16g# 16a 16dd_
16EEJJ] 16g#_ 16b 16dd]
16g#LL_ 16a [16cc#
16g#J] 16b 16cc#_
[16EEL 16e 16g# 16cc#_
16EEJJ] 16c# 16a 16cc#_
=67
8DDL [8f# 8cc#_
[8DJ 8F# 8f#] 8cc#]
8DL] [8b
16BBL [16F# [16d 16b_
16GG#JJ 16F#] 16d] 16b_
8C#L 8E 8e 8b_
[16CC#L [16e 16f# 16b_
16CC#JJ] 16e_ 16g# 16b]
16eLL_ 16f# [16a
16eJ] 16g# 16a_
[16C#L 16c# 16e 16a_
16C#JJ] 16A 16f# 16a_
=68
8BBL [8d 8a_
8DJ [8B 8d] 8a]
8BL] [8g#
16G#L [16B [16d 16g#_
16EJJ 16B] 16d] 16g#]
8AL 8c# 8a
8AAJ 8A 8cc# 8ee
8DL 8b 8dd
8D#XJ 8A 8a 8cc#
=69
[8EL [8g# 8b
8EJ_ 8g#] 8ee
8EL_ 8ee
16EL_ 16F# [16ee
16EJJ_ 16G# 16ee]
8EL_ 8A 8cc#
16EL_ [16B 16b
16EJJ_ 16B] 16cc#
8EL_ 8c# 8a
8EJ_ 8a 8cc#
=70
8EL_ [8a 8b [8dd
8EJ_ 8a] 8dd] [8bb
8EL_ [8g# [8ee 8bb]
16EL_ 16g#_ 16ee_ 16gg#
16EJJ_ 16g#_ 16ee]
8EL_ 8g#_ 8cc# 8aa
16EL_ 16g#_ [16a 16dd
16EJJ_ 16g#] 16a] 16ee
16ELL_ [16f# 16dd
16EJ_ 16f#_ 16ee
16EL_ 16f#_ [16a 16cc#
16EJJ] 16f#_ 16a] 16dd
=71
[8EL 8f#_ 8g# [8b
8EJ_ 8f#] 8b] [8gg#
8EL_ [8e [8cc# 8gg#]
16EL_ 16e_ 16cc#_ 16ee
16EJJ_ 16e_ 16cc#]
8EL_ 8e_ 8a 8ff#
16EL_ 16e_ [16f# 16b
16EJJ_ 16e] 16f#] 16cc#
16ELL_ [16d 16b
16EJ_ 16d_ 16cc#
16EL_ 16d_ [16f# 16a
16EJJ_ 16d_ 16f#] 16b
=72
8EL_ 8d_ 8e [8g#
8EJ_ 8d] 8g#] [8ee
8EL_ [8c# [8a 8ee]
16EL_ 16c#_ 16a_ 16cc#
16EJJ_ 16c#] 16a]
8EL_ [8A [8d#X 8f#
8EJ_ 8A_ 8d#] [8aa
8EL_ 8A_ [8f# 8aa]
16EL_ 16A_ 16f#_ 16ff#
16EJJ] 16A] 16f#] 16dd#X
=73
[8EEL [8G# [8e 8ee
8EEJ_ 8G#] 8e]
8EEL_ [8g# [8ee
8EEJ_ 8e 8g#] 8ee_
8EEL_ 8f# 8a 8ee_
8EEJ_ 8A 8ee] [8ff#
8EEL_ 8B [8dd 8ff#]
16EEL_ [16b 16dd_
16EEJJ_ 16b] 16dd_
=74
8EEL_ 8g# 8dd_ 8ee
16EEL_ [16e 16a 16dd_
16EEJJ_ 16e] 16b 16dd]
16EELL_ 16a [16cc#
16EEJ_ 16b 16cc#_
16EEL_ [16e 16g# 16cc#_
16EEJJ_ 16e] 16a 16cc#_
8EEL_ 8d 8f# 8cc#_
8EEJ_ 8F# 8cc#] [8dd
8EEL_ 8G# [8b 8dd]
16EEL_ [16g# 16b_
16EEJJ] 16g#] 16b_
=75
[8EEL 8e 8b_ 8cc#
16EEL_ [16c# 16f# 16b_
16EEJJ_ 16c#] 16g# 16b]
16EELL_ 16f# [16a
16EEJ_ 16g# 16a_
16EEL_ [16c# 16e 16a_
16EEJJ] 16c#] 16f# 16a_
8EEL 8B 8d 8a_
[16EL 16e 16a_ [16b
16EJJ] 16f# 16a] 16b_
8EL [8e [8g# 8b]
[16EL 16e_ 16g#_
16EJJ] 16e_ 16g#]
=76
8C#L 8e_ 8a 8cc#
16BBL 16e_ 16dd [16ee
16C#JJ 16e] 16ee]
[16AALL 16cc# [16ee
16AAJ_ 16dd 16ee]
16AAL_ 16b [16ee
16AAJJ] 16cc# 16ee]
[8aL 8cc#
[16AL [16e 16a_ 16b
16AJJ] 16e] 16a] 16cc#
8AL 8e [8a
8AJ 8c# 8e 8a]
=77
8F#L [8d 8f#
16EL 16d_ 16gn [16aa
16F#JJ 16d] 16a 16aa]
[16DLL 16f# [16aa
16DJ_ 16gn 16aa]
16DL_ 16e [16aa
16DJJ] 16f# 16aa]
[8dL 8ff#
16dL_ [16a 16ee
16dJJ] 16a] 16ff#
8BL [8b 8dd
16AL 16b_ 16cc#
16BJJ 16b] 16dd
=78
8G#L 8b
16F#L [16e 16a
16G#JJ 16e] 16b
8EL 8g# [8ee
8c#J 8e 8ee]
8AL [8cc#
16G#L 16b 16cc#_ [16ee
16AJJ 16cc#] 16ee]
8F#L 8a 8aa
16dL [16a 16ff#
16c#JJ 16a] 16ee
=79
16BLL [16dd
16c#J 16dd_ 16ee
16AL [16f# 16cc# 16dd_
16BJJ 16f#] 16dd]
16G#LL 16b [16dd
16AJ 16cc# 16dd_
16F#L [16B 16a 16dd_
16G#JJ 16B] 16b 16dd]
16ELL [16g#
16F#J 16g#_ 16a
16DL [16B 16f# 16g#_
16EJJ 16B] 16g#]
16C#LL [16e
16DJ 16e] 16f#
16BBL 16d 16f#
16C#JJ 16e 16g#
=80
[8AAL [8c# [8a
8AAJ] 8c#] 8a] 8ee
8eeL
8AJ 8ee
[16ALL 16ff#
16AJ] 16ee
[16AL 16ff#
16AJJ] 16gg#
16c#LL [16aa
16BJ 16aa]
16c#L [16ccc#
16dJJ 16ccc#]
=81
8eL 8bb
8g#J [8b [8bb
8bL] 8bb]
[16EL [16g# 16ee 16gg#
16EJJ] 16g#] 16ee 16gg#
8F#L 8f# 8a 8aa
[8F#J [8f# 8a 8aa
8F#L] 8f#]
16BL 16d [16aa
16BJJ 16d 16aa]
=82
8EL 8e 8gg#
8EJ 8e [8g# [8gg#
8g#L] 8gg#]
[16C#L [16e 16cc# 16ee
16C#JJ] 16e] 16cc# 16ee
8DL 8d 8f# 8ff#
[8DJ [8d 8f# 8ff#
8DL] 8d]
16G#L 16B [16ff#
16G#JJ 16B 16ff#]
=83
8C#L 8c# 8ee
8C#J 8c# [8e
8eL]
[16AAL [16e 16a
16AAJJ] 16e] 16cc#
[16AALL [16d 16f#
16AAJ] 16d] 16e
[16AAL 16f# [16dd
16AAJJ] 16g# 16dd]
16C#LL [16a [16cc#
16BBJ 16a] 16cc#]
16C#L [16a [16cc#
16DJJ 16a] 16cc#]
=84
8EL [8g# 8b
8G#J [8B 8g#]
8BL] [8ee
[16G#L 16e 16ee_
16G#JJ] 16g# 16ee_
8F#L 8A 8ee]
[16FF#L [16a 16ff#
16FF#JJ_ 16a] 16cc#
8FF#L] [8dd
16BBL [16a 16dd_
16DJJ 16a] 16dd_
=85
8EEL 8g# 8dd]
[16EL [16G# 16ee
16EJJ] 16G#_ 16b
8G#L] [8cc#
[16EL 16c# 16cc#_
16EJJ] 16e 16cc#_
8DL 8f# 8cc#]
[16DDL 16dd [16ff#
16DDJJ_ 16a 16ff#]
8DDL] [8b
16GG#L 16b_ [16ff#
16BBJJ 16b] 16ff#]
=86
8CC#L 8b 8ee
[16C#L [16e 16cc#
16C#JJ] 16e_ 16g#
8eL] 8a
[16C#L [16e 16a
16C#JJ] 16e] 16cc#
8BBL 8g# 8dd
8AAJ 8a 8cc#
8DL 8f# 8b
8D#XJ 8f# 8a
=87
[8EL 8B [8g#
8EJ_ 8G# 8g#] 8ee
8EL_ 8ee
16EL_ 16F# [16ee
16EJJ_ 16G# 16ee]
8EL_ 8A 8cc#
16EL_ [16B [16a 16b
16EJJ_ 16B] 16a] 16cc#
16ELL_ [16c# [16a
16EJ_ 16c#] 16a] 16cc#
16EL_ [16d [16a 16b
16EJJ] 16d] 16a]
=88
8EEL 8e 8g#
[16EL [16f# [16a
16EJJ] 16f#] 16g# 16a]
8EL 8e 8g# 8b
[16EL [16e 16f# 16a
16EJJ] 16e] 16g# 16b
8C#L 8e 8a 8cc#
16BBL [16e [16b [16dd
16C#JJ 16e] 16b] 16dd]
8AAL 8c# 8cc# 8ee
[16C#L 16B [16ee [16aa
16C#JJ] 16A 16ee] 16aa]
=89
8BBL 8d [8dd [8aa
[8BJ 8dd_ 8aa]
8BL] 8dd_ [8gg#
16G#L 16b 16dd_ 16gg#_
16EJJ 16g# 16dd] 16gg#_
8AL 8cc# 8gg#_
[16AAL [16c# 16dd 16gg#_
16AAJJ] 16c#] 16ee 16gg#]
16ddLL [16ff#
16eeJ 16ff#_
[16AAL [16a 16cc# 16ff#_
16AAJJ] 16a] 16dd 16ff#_
=90
8GG#L [8b 8ff#_
[16G#L 16b_ 16cc# 16ff#_
16G#JJ_ 16b] 16dd 16ff#]
16G#LL_ 16cc# [16ee
16G#J] 16dd 16ee_
16EL [16g# 16b 16ee_
16C#JJ 16g#] 16cc# 16ee_
8F#L [8a 8ee_
[16FF#L 16a_ 16b 16ee_
16FF#JJ] 16a] 16cc# 16ee]
16bLL [16dd
16cc#J 16dd_
[16FF#L [16f# 16a 16dd_
16FF#JJ] 16f#] 16b 16dd_
=91
8EEL 8g# 8b 8dd_
16FF#L [16g# 16a 16dd_
16GG#JJ 16g#] 16b 16dd]
8AAL [8e [8a [8cc#
16BBL 16e_ 16a_ 16cc#_
16C#JJ 16e] 16a_ 16cc#]
8DL 8f# 8a_ [8b
16C#L 16e 16a_ 16b_
16DJJ 16f# 16a] 16b_
8EL 8e [8g# 8b_
8EEJ 8d 8g#] 8b]
=92
8AAL 8c# 8a
8EJ 8e
8EL 8e
8EJ 8e
8C#L 8c#
16BBL 16B
16C#JJ 16c#
8AAL 8A
8F#J 8f#
=93
8DL 8d
16C#L 16c#
16DJJ 16d
8BBL 8B
8G#J 8g#
16ALL 16a
16BJ 16b
16c#L 16cc#
16BJJ 16b
16ALL 16a
16G#J 16g#
16F#L 16f#
16EJJ 16e
=94
8DL 8d
8BJ 8b
8EL 8e
8G#J 8g#
4AA 4A
4EE 4E 4e 4b 4gg#
=95
4AA 4A 4e 4cc# 4aa
2.r
=||
*-
